projects/icons/src/tuiIconRedo.svg

<svg xmlns="http://www.w3.org/2000/svg" id="tuiIconRedo" viewBox="0 0 24 24" fill="none">
<path d="M20.712 10.9669C20.7115 11.341 20.551 11.7229 20.2286 11.9826C20.2281 11.983 20.2276 11.9834 20.2271 11.9838L13.2094 17.6483C13.2088 17.6488 13.2082 17.6492 13.2076 17.6497C12.9821 17.8322 12.7012 17.9325 12.4111 17.9341C12.1203 17.9358 11.8375 17.8382 11.6096 17.6575L11.6096 17.6575L12.137 16.524L11.2011 16.1719L11.2012 16.1715C11.2014 16.171 11.2016 16.1704 11.2018 16.1699L12.1096 13.7563C10.1401 13.7801 8.72248 14.0117 7.50265 14.6311C6.02121 15.3833 4.68687 16.7846 3.07205 19.5062C2.82451 19.9235 2.31322 20.1028 1.85929 19.9317C1.40535 19.7606 1.13971 19.2883 1.22919 18.8115C1.68754 16.3694 2.40188 13.8315 4.24312 11.8362C5.91886 10.0202 8.41458 8.76955 12.1548 8.2949L11.2011 5.76011L11.2011 5.76003C11.1042 5.50257 11.0909 5.22116 11.1629 4.95568C11.2348 4.69079 11.3881 4.45519 11.6011 4.28212C11.8285 4.09726 12.1125 3.99634 12.4055 3.99634C12.6977 3.99634 12.9811 4.09671 13.2081 4.28062C13.2087 4.28112 13.2093 4.28162 13.2099 4.28212L20.2293 9.94995L20.2293 9.9499L20.2383 9.95732C20.3871 10.0804 20.5068 10.235 20.5887 10.4099C20.6704 10.5842 20.7125 10.7744 20.712 10.9669ZM20.712 10.9669C20.712 10.9663 20.712 10.9656 20.712 10.965H19.712L20.712 10.9688C20.712 10.9682 20.712 10.9675 20.712 10.9669ZM11.9486 16.0957L11.9509 16.0938C11.9502 16.0945 11.9494 16.0951 11.9486 16.0957Z" stroke="currentColor" stroke-width="2" stroke-linecap="round" stroke-linejoin="round"/>
</svg>

<svg xmlns="http://www.w3.org/2000/svg" id="tuiIconRedo" fill="none" viewBox="0 0 24 24"><path stroke="currentColor" stroke-linecap="round" stroke-linejoin="round" stroke-width="2" d="M20.712 10.967c0 .374-.161.756-.483 1.016h-.002l-7.018 5.665-.001.002a1.277 1.277 0 01-1.598.008h0l.527-1.134-.936-.352h0v-.002l.909-2.414c-1.97.024-3.388.256-4.607.875-1.482.752-2.816 2.154-4.431 4.875a1 1 0 01-1.843-.695c.459-2.442 1.173-4.98 3.014-6.975C5.92 10.02 8.415 8.77 12.155 8.295L11.2 5.76h0a1.31 1.31 0 01.4-1.478 1.275 1.275 0 011.609 0l7.02 5.668h0l.008.007a1.306 1.306 0 01.474 1.01zm0 0v-.002h-1l1 .004v-.002zm-8.763 5.129l.002-.002-.002.002z"/></svg>
